src/items/1-amulet.svg

<svg xmlns="http://www.w3.org/2000/svg" viewBox="0 0 48 48" width="96" height="96"><path fill="#00897b" d="M8 37l7 7h18l7-7V11l-7-7H15l-7 7z"/><path fill="#26a69a" d="M8 37l7 7L33 4H15l-7 7z"/><path fill="#26a69a" d="M12 8h24v32H12z"/><path fill="#80cbc4" d="M36 8H12v32z"/><path fill="#4db6ac" d="M36 8H12l12 16z"/><path fill="#b2dfdb" d="M16 16l4-4h8.111L32 16v16l-4 4h-8l-4-4z"/><path fill="#ceefec" d="M16 16l4-4h8.111L20 36l-4-4z"/><path fill="#80cbc4" d="M33 44l-4.889-8L32 32l8 5z"/><path fill="#b2dfdb" d="M15 44l5-8-4-4-8 5zm1-28l-8-5 7-7 5 8z"/><path fill="#80cbc4" d="M28 12l4 4 8-5-7-7z"/></svg>

<svg xmlns="http://www.w3.org/2000/svg" viewBox="0 0 48 48" width="96px" height="96px"><path fill="#00897b" d="M8 37L15 44 33 44 40 37 40 11 33 4 15 4 8 11z"/><path fill="#26a69a" d="M8 37L15 44 33 4 15 4 8 11z"/><path fill="#26a69a" d="M12 8H36V40H12z"/><path fill="#80cbc4" d="M36 8L12 8 12 40z"/><path fill="#4db6ac" d="M36 8L12 8 24 24z"/><path fill="#b2dfdb" d="M16 16L20 12 28.111 12 32 16 32 32 28 36 20 36 16 32z"/><path fill="#ceefec" d="M16 16L20 12 28.111 12 20 36 16 32z"/><path fill="#80cbc4" d="M33 44L28.111 36 32 32 40 37z"/><path fill="#b2dfdb" d="M15 44L20 36 16 32 8 37zM16 16L8 11 15 4 20 12z"/><path fill="#80cbc4" d="M28 12L32 16 40 11 33 4z"/></svg>
